X:75
T:Quond Lou Moulini B D'Ol Mercat
M:2/4
L:1/8
N:Anim
N:La Bourre 4th edition 1929, page 77
Z:Steve Mansfield www.lesession.co.uk May 2012
K:Gm
G/ A/ B/ A/ | G d d c | d2 (G/A/) B/ A/ | 
G d d c | !fermata! d2 B c |  d c d B | G2 (3 A B A | G2 F2 - |
F2 G B | d c d B | G2 (3 A B A | G A (3 G G F | G2 z2 |]
<end>
<start>
